X: 1
T: Tail Toddle
R: reel
Z: 2019 John Chambers <jc:trillian.mit.edu>
M: C|
L: 1/8
K: D
|:\
"D"d2fd "G"g2fe | "D"d2fd "A7"e2cA |\
"D"d2fd "G"g2fe | "D"f{g}a gf "A7"e2 cA :|
|:\
"G"g2dB B2dB | g2dB "A7"e2cA |\
"G"g2dB B2dB | "A"A2af e2cA :|
